src/ui/asset/angle-down-small.svg

<svg width="24" height="24" viewBox="0 0 24 24" fill="none" xmlns="http://www.w3.org/2000/svg">
    <path fill-rule="evenodd" clip-rule="evenodd" d="M16.7071 10.2832C16.3166 9.90561 15.6834 9.90561 15.2929 10.2832L12.7071 12.7832C12.3166 13.1607 11.6834 13.1607 11.2929 12.7832L8.70711 10.2832C8.31658 9.90561 7.68342 9.90561 7.29289 10.2832C6.90237 10.6607 6.90237 11.2729 7.29289 11.6505L9.87868 14.1505C11.0503 15.2832 12.9497 15.2832 14.1213 14.1505L16.7071 11.6505C17.0976 11.2729 17.0976 10.6607 16.7071 10.2832Z" fill="#808080"/>
</svg>

<svg width="24" height="24" fill="none" xmlns="http://www.w3.org/2000/svg"><path fill-rule="evenodd" clip-rule="evenodd" d="M16.707 10.283a1.024 1.024 0 00-1.414 0l-2.586 2.5a1.025 1.025 0 01-1.414 0l-2.586-2.5a1.024 1.024 0 00-1.414 0 .944.944 0 000 1.367l2.586 2.5a3.073 3.073 0 004.242 0l2.586-2.5a.944.944 0 000-1.367z" fill="gray"/></svg>
